X:1
T:Title
%%score { ( 1 3 ) | ( 2 4 ) }
L:1/8
M:4/4
K:A
V:1 treble nm="Grand Piano"
V:3 treble 
V:2 bass 
V:4 bass 
V:1
 z4 z2[Q:1/4=100] E2 | [CEA]3 [DB] [CA]2 [DF]2 | [CE]>[DF] [CE]>[B,D] [A,C]2 [CE]2 | %3
 [Ec]3 [Ec] B2 A2 |[M:3/4] B6 |[M:1/4] B2 |[M:4/4] B3 c B2 A2 | G>F G>[B,FA] [EGB]2 [EAc]2 | %8
 [EGB]2 [FA]2 [EG]2 [^DF]2 |[M:3/4] E6 |[M:1/4] z E |[M:4/4] c2 B2 A2 E2 | G2 F2 [CE]2 z2 | %13
 F4 F2 F2 |[M:3/4] d6 |[M:1/4] z [Fd] |[M:4/4] [Fd]2 [Ec]2 B2 FF | B2 [^DA]2 G2 EE | %18
 E2 EE EGB[EBd] | [Bd]c[EAc][EAc] [EAc]2 c2 | d2 F>F FF d2 | %21
 c2 [A,CE]>[A,CE] [A,CE][A,CE][CEA][EAc] | [ce]2 z2 z4 |[M:3/4] A6 |] %24
V:2
 z4 z2 E,2 | A,,3 [A,,A,] [A,,E,]2 [A,,A,]2 | [A,,A,]>[A,,A,] [A,,A,]>[A,,E,] [A,,E,]2 [A,,A,]2 | %3
 [A,,A,]3 [C,A,] [E,G,D]2 [F,A,C]2 |[M:3/4] [E,G,E]6 |[M:1/4] [E,G,E]2 | %6
[M:4/4] [E,G,E]3 [E,A,E] [E,G,E]2 [E,CE]2 | [E,B,E]>[E,B,^D] [E,B,E]>E, E,2 A,,2 | %8
 B,,2 [B,,B,]2 [B,,B,]2 [B,,A,]2 |[M:3/4] [E,G,]6 |[M:1/4] z [E,G,] | %11
[M:4/4] [A,E]2 [E,G,D]2 [F,A,C]2 [C,A,]2 | [D,A,D]2 [D,A,D]2 [A,,A,]2 z2 | %13
 [F,^A,C]4 [F,A,E]2 [F,A,E]2 |[M:3/4] [B,,B,]2 [B,,B,]2 [B,,B,]2 |[M:1/4] z [B,,B,] | %16
[M:4/4] [B,,B,]2 [C,^A,]2 [D,B,D]2 [^D,=A,][D,A,] | [E,G,E]2 [B,,F,]2 [E,E]2 E,E, | %18
 E,2 E,E, E,G,B,G, | [A,E]2[K:bass] z2 z4[K:treble] | %20
 F2[K:bass] [D,A,D]>[D,A,D] [D,A,D][D,A,D][K:treble] F2 | E2[K:bass] A,,>A,, A,,A,,A,A, | %22
 A,2 E,F, z DE,E, |[M:3/4] z A, CD C2 |] %24
V:3
 x8 | x8 | x8 | x8 |[M:3/4] x6 |[M:1/4] x2 |[M:4/4] x8 | x8 | x8 |[M:3/4] x6 |[M:1/4] x2 | %11
[M:4/4] x8 | x8 | x8 |[M:3/4] D2 F2 F2 |[M:1/4] x2 |[M:4/4] x8 | x8 | x8 | x8 | x8 | x8 | %22
 E2- [E-Bd][E-^Ac] [EBd]2 [DGB][DEG] |[M:3/4] [CE]C FF E2 |] %24
V:4
 x8 | x8 | x8 | x8 |[M:3/4] x6 |[M:1/4] x2 |[M:4/4] x8 | x8 | x8 |[M:3/4] x6 |[M:1/4] x2 | %11
[M:4/4] x8 | x8 | x8 |[M:3/4] x6 |[M:1/4] x2 |[M:4/4] x8 | x8 | x8 | %19
 z A[K:bass]C,E, A,2[K:treble] =G2 | x2[K:bass] x4[K:treble] x2 | x2[K:bass] x6 | z4 B,,2 z2 | %23
[M:3/4] A,,6 |] %24

